X:1
T:Title
%%score { ( 1 4 ) | ( 2 3 ) }
L:1/8
M:6/4
K:Db
V:1 treble nm="Grand Piano"
V:4 treble 
V:2 bass 
V:3 bass 
V:1
 z6 z4[Q:1/4=108] [FA]2 | [Fd]4 [DGB]2 [DFA]2 [DF]2 [B,DG]2 | [A,FA]2 D2 E2 F4 F2 | %3
 [CE]2 [_C=D]2 [=CE]2 [GB]2 [FA]2 [A,EG]2 |[M:5/4] [A,DF]2- [A,DF]2- [A,DF]6 |[M:1/4] [DFA]2 | %6
[M:6/4] [Fd]4 [DGB]2 [DFA]2 [DF]2 [B,DG]2 | [A,FA]2 D2 E2 F4 F2 | E2 F2 =G2 d2 c2 B2 | %9
[M:5/4] [A,CA]2- [A,CA]2- [A,CA]6 |[M:1/4] B2 |[M:6/4] A4 G2 F4 [A,CE]2 | %12
 [DF]2 [CG]2 [A,DA]2 [A,DF]4 [DFA]2 | [DGB]4 [DGB]2 [DFA]2 [CEG]2 [A,DF]2 | %14
[M:5/4] [B,DE]4 [B,DE]2 [CE]4 |[M:1/4] [A,CE]2 |[M:6/4] [DF]2 [CG]2 [A,DA]2 [A,DF]4 [DFA]2 | %17
 [GB]2 c2 [DBd]2 [DGB]4 [DGB]2 | [DFA]2 F2 G2 A2 D2 [=G,DE]2 | %19
[M:5/4] [A,DF]4[K:bass] [G,CE]2 [F,D]4 |] %20
V:2
 z6 z4 [D,D]2 | [D,A,]4 D,2 z2 A,2 D,2 | z2 F,2 [D,G,D]2 [D,A,D]4 [D,A,D]2 | z6 .A,6 | %4
[M:5/4] D,2- D,2- D,6 |[M:1/4] D,2 |[M:6/4] [D,A,]4 D,2 z2 A,2 D,2 | %7
 z2 F,2 [D,G,D]2 [D,A,D]4 [D,A,D]2 | [E,D]2- [E,A,D]2 [E,B,D]2 [B,F]2 [A,E]2 [E,=G,D]2 | %9
[M:5/4] A,,2- A,,2- A,,6 |[M:1/4][K:treble] G2 |[M:6/4] F4 E2 D4[K:bass] A,,2 | %12
 D,2 E,2 F,2 D,4 D,2 | G,4 G,2 D,2 E,2 F,2 |[M:5/4] G,4 G,2 A,4 |[M:1/4] A,,2 | %16
[M:6/4] D,2 E,2 F,2 D,4 D,2 | z2 A2 G,2 G,4 G,2 | z2 [A,D]2 [D,B,D]2 .[D,F,D]4 B,,2 | %19
[M:5/4] A,,4 A,,2 D,4 |] %20
V:3
 x12 | z6 .D,6 | .D,6 z6 | [A,,A,]4 [A,,A,]2 A,,2 B,,2 C,2 |[M:5/4] x10 |[M:1/4] x2 | %6
[M:6/4] z6 .D,6 | .D,6 z6 | .=G,6 .E,6 |[M:5/4] x10 |[M:1/4][K:treble] x2 |[M:6/4] x10[K:bass] x2 | %12
 x12 | x12 |[M:5/4] x10 |[M:1/4] x2 |[M:6/4] x12 | .G,6 z6 | .D,6 z6 |[M:5/4] x10 |] %20
V:4
 x12 | x12 | x12 | x12 |[M:5/4] x10 |[M:1/4] x2 |[M:6/4] x12 | x12 | x12 |[M:5/4] x10 |[M:1/4] x2 | %11
[M:6/4] x12 | .A,6 z6 | x12 |[M:5/4] x10 |[M:1/4] x2 |[M:6/4] .A,6 z6 | .D6 z6 | x12 | %19
[M:5/4] x4[K:bass] x6 |] %20

